X: 127
T: The Salloon
%R: jig
B: Chas & Sam Thompson "Twenty Four Country Dances for the Year 1778", London 1778, p.64 #1
F: http://www.vwml.org/browse/browse-collections-dance-tune-books/browse-thompsons1778#
Z: 2014 John Chambers <jc:trillian.mit.edu> (added dance description)
N: rest added after first repeat to fix the rhythm.
M: 6/8
L: 1/8
K: D
% - - - - - - - - - - - - - - - - - - - - - - - - - - - - -
d |\
AFD DEF | GEG FDd | AFD DEF | G[eE][cC] [d2D2] :: z |\
def fef | Bcd ecA | def fef | Bec d2 :|
% - - - - - - - - - - Dance description - - - - - - - - - -
%%begintext align
%% Right hands across .|. left hands back
%% again :|. cross over one Cu: .|: lead thro'
%% the top and cast off :|:
%%endtext

%%sep 1 1 500
%%sep 1 1 500
